icons/Logos/douban-line.svg

<svg viewBox="0 0 24 24" xmlns="http://www.w3.org/2000/svg"><path d="M15.2735 15H5V7H19V15H17.3764L16.0767 19H21V21H3V19H7.6123L6.8 16.5L8.70211 15.882L9.71522 19H13.9738L15.2735 15ZM3.5 3H20.5V5H3.5V3ZM7 9V13H17V9H7Z"/></svg>

<svg xmlns="http://www.w3.org/2000/svg" viewBox="0 0 24 24">
    <g>
        <path fill="none" d="M0 0h24v24H0z"/>
        <path d="M15.273 15H5V7h14v8h-1.624l-1.3 4H21v2H3v-2h4.612L6.8 16.5l1.902-.618L9.715 19h4.259l1.3-4zM3.5 3h17v2h-17V3zM7 9v4h10V9H7z"/>
    </g>
</svg>
